home/.icons/Gruvbox-Plus-Dark/emotes/symbolic/face-cool-symbolic.svg

<svg width="16" height="16" version="1.1" xmlns="http://www.w3.org/2000/svg">
  <defs>
    <style type="text/css" id="current-color-scheme">.ColorScheme-Text { color:#ebdbb2; } .ColorScheme-Highlight { color:#458588; }</style>
  </defs>
  <path class="ColorScheme-Text" fill="currentColor" d="m8 1c-2.38 0-4.48 1.19-5.75 3h11.5c-1.27-1.81-3.37-3-5.75-3zm5.97 3.34 0.03 1.41c0 1.51-0.71 2.25-2.06 2.25h-0.85c-1.35 0-2.09-0.74-2.09-2.25v-0.75h-2v0.75c-0.02 1.51-0.8 2.25-2.16 2.25h-0.84c-1.36 0-1.99-0.74-2-2.25l-0.03-1.32c-0.62 1.05-0.97 2.27-0.97 3.57 0 3.86 3.13 7 7 7s7-3.14 7-7c0-1.35-0.38-2.6-1.03-3.66zm-8.8 5.49c0.75 0.75 1.77 1.17 2.83 1.17s2.08-0.42 2.83-1.17l0.7 0.7c-0.93 0.94-2.2 1.47-3.53 1.47s-2.6-0.53-3.53-1.47z"/>
</svg>

<svg xmlns="http://www.w3.org/2000/svg" width="16" height="16" version="1.1">
 <path style="fill:#ebdbb2" d="M 8,1 C 5.62,1 3.52,2.19 2.25,4 H 13.75 C 12.48,2.19 10.38,1 8,1 Z M 13.97,4.34 14,5.75 C 14,7.26 13.29,8 11.94,8 H 11.09 C 9.74,8 9,7.26 9,5.75 V 5 H 7 V 5.75 C 6.98,7.26 6.2,8 4.84,8 H 4 C 2.64,8 2.01,7.26 2,5.75 L 1.97,4.43 C 1.35,5.48 1,6.7 1,8 1,11.86 4.13,15 8,15 11.87,15 15,11.86 15,8 15,6.65 14.62,5.4 13.97,4.34 Z M 5.17,9.83 C 5.92,10.58 6.94,11 8,11 9.06,11 10.08,10.58 10.83,9.83 L 11.53,10.53 C 10.6,11.47 9.33,12 8,12 6.67,12 5.4,11.47 4.47,10.53 Z"/>
</svg>
